X:1
T:Verbum supernum - Witt
T:#
%%score [ 1 2 3 4 ]
L:1/8
Q:1/4=130
M:4/4
K:Bb
V:1 treble nm="S" snm="S"
V:2 treble nm="A" snm="A"
V:3 treble nm="T" snm="T"
V:4 bass nm="B" snm="B"
V:1
"^Hymn to the Blessed Sacrament""^Verbum supernum prodiens""^Franz Xaver Witt\n(1834-1888)" B4 | %1
w: Ver-|
w: In|
w: Qui-|
 d4 c4 | d4 e4 | d4 c4 | B4 d4 | d4 c4 | d4 f4 | f4 =e4 | f4 f4 | g4 f4 | d4 e4 | f4 (e2 d2) | %12
w: bum su-|per- num|pro- di-|ens, Nec|Pa- tris|lin- quens|dex- te-|ram, Ad|o- pus|su- um|ex- i\- *|
w: mor- tem|a di-|sci- pu-|lo, Su-|is tra-|den- dus|ae- mu-|lis, Pri-|us in|vi- tae|fer- cu\- *|
w: bus sub|bi- na|spe- ci-|e, Car-|nem de-|dit et|san- gui-|nem, Ut|du- pli-|cis sub-|stan- ti\- *|
 c4 d4 | B4 c4 | d4 e4 | d4 c4 | B6 || B4 | d4 c4 | d4 e4 | d4 c4 | B4 d4 | d4 c4 | d4 f4 | %24
w: ens, Ve-|nit ad|vi- tae|ve- spe-|ram.|Se|na- scens|de- dit|so- ci-|um, Con-|ve- scens|in e-|
w: lo, Se|tra- di-|dit di-|sci- pu-|lis.|O|sa- lu-|ta- ris|Hos- ti-|a, Quae|cae- li|pan- dis|
w: ae, To-|tum ci-|ba- ret|ho- mi-|nem.|U-|ni Tri-|no- que|Do- mi-|no, Sit|sem- pi-|ter- na|
 f4 =e4 | f4 f4 | g4 f4 | d4 e4 | f4 (e2 d2) | c4 d4 | B4 c4 | d4 e4 | d4 c4 | B6 || (B4- | %35
w: du- li-|um, Se|mo- ri-|ens in|pre- ti\- *|um, Se|re- gnans|dat in|prae- mi-|um.|A\-|
w: hos- ti-|um, Bel-|la pre-|munt hos-|ti- li\- *|a: Da|ro- bur,|fer au-|xi- li-|um.||
w: glo- ri-|a, Qui|vi- tam|si- ne|ter- mi\- *|no, No-|bis do-|net in|pa- tri-|a.||
 B2 cd e4- | e2 dc B4) |] %37
w: |* * * men.|
w: ||
w: ||
V:2
 D4 | F6 F2 | F4 G4 | F6 E2 | D4 G4 | F4 F4 | F4 F4 | (d2 c2) (B2 AG) | F4 (F2 B2) | B4 B4 | %10
w: Ver-|bum su-|per- num|pro- di-|ens, Nec|Pa- tris|lin- quens|dex\- * te\- * *|ram, Ad\- *|o- pus|
w: In|mor- tem|a di-|sci- pu-|lo, Su-|is tra-|den- dus|ae\- * mu\- * *|lis, Pri\- *|us in|
w: Qui-|bus sub|bi- na|spe- ci-|e, Car-|nem de-|dit et|san\- * gui\- * *|nem, Ut *|du- pli-|
 F4 G4 | F6 (FG) | A4 ^F4 | G2 (D2 F4) | F4 G4 | F2 (G4 FE) | D6 || D4 | F6 F2 | F4 G4 | F6 E2 | %21
w: su- um|ex- i\- *|ens, Ve-|nit ad *|vi- tae|ve- spe\- * *|ram.|Se|na- scens|de- dit|so- ci-|
w: vi- tae|fer- cu\- *|lo, Se|tra- di\- *|dit di-|sci- pu\- * *|lis.|O|sa- lu-|ta- ris|Hos- ti-|
w: cis sub-|stan- ti\- *|ae, To-|tum ci\- *|ba- ret|ho- mi\- * *|nem.|U-|ni Tri-|no- que|Do- mi-|
 D4 G4 | F4 F4 | F4 F4 | (d2 c2) (B2 AG) | F4 (F2 B2) | B4 B4 | F4 G4 | F6 (FG) | A4 ^F4 | %30
w: um, Con-|ve- scens|in e-|du\- * li\- * *|um, Se *|mo- ri-|ens in|pre- ti\- *|um, Se|
w: a, Quae|cae- li|pan- dis|hos\- * ti\- * *|um, Bel\- *|la pre-|munt hos-|ti- li\- *|a: Da|
w: no, Sit|sem- pi-|ter- na|glo\- * ri\- * *|a, Qui *|vi- tam|si- ne|ter- mi\- *|no, No-|
 G2 (D2 F4) | F4 G4 | F2 (G4 FE) | D6 || (G2 _A2 | B2 _A2 G4 | !fermata!F8) |] %37
w: re- gnans *|dat in|prae- mi\- * *|um.|A\- *||men.|
w: ro- bur, *|fer au-|xi- li\- * *|um.||||
w: bis do\- *|net in|pa- tri\- * *|a.||||
V:3
 B4 | B4 c4 | B4 B4 | B6 A2 | B4 B4 | B4 A4 | B4 (d2 c2) | (B2 A2) (G2 c2) | A4 B4 | (B2 e4) d2 | %10
w: Ver-|bum su-|per- num|pro- di-|ens, Nec|Pa- tris|lin- quens *|dex\- * te\- *|ram, Ad|o\- * pus|
w: In|mor- tem|a di-|sci- pu-|lo, Su-|is tra-|den- dus *|ae\- * mu\- *|lis, Pri-|us * in|
w: Qui-|bus sub|bi- na|spe- ci-|e, Car-|nem de-|dit et *|san\- * gui\- *|nem, Ut|du\- * pli-|
 (B2 A2) c4 | c2 (d2 c2 B2) | A4 A4 | G2 (B4 A2) | B6 c2 | (c2 B4) (AB) | B6 || B4 | B4 c4 | %19
w: su\- * um|ex- i\- * *|ens, Ve-|nit ad *|vi- tae|ve\- * spe\- *|ram.|Se|na- scens|
w: vi\- * tae|fer- cu\- * *|lo, Se|tra- di\- *|dit di-|sci\- * pu\- *|lis.|O|sa- lu-|
w: cis * sub-|stan- ti\- * *|ae, To-|tum ci\- *|ba- ret|ho\- * mi\- *|nem.|U-|ni Tri-|
 B4 B4 | B6 A2 | B4 B4 | B4 A4 | B4 (d2 c2) | (B2 A2) (G2 c2) | A4 B4 | (B2 e4) d2 | (B2 A2) c4 | %28
w: de- dit|so- ci-|um, Con-|ve- scens|in e\- *|du\- * li\- *|um, Se|mo\- * ri-|ens * in|
w: ta- ris|Hos- ti-|a, Quae|cae- li|pan- dis *|hos\- * ti\- *|um, Bel-|la * pre-|munt * hos-|
w: no- que|Do- mi-|no, Sit|sem- pi-|ter- na *|glo\- * ri\- *|a, Qui|vi\- * tam|si\- * ne|
 c2 (d2 c2 B2) | A4 A4 | G2 (B4 A2) | B6 c2 | (c2 B4) (AB) | B6 || B4- | B8 | !fermata!B8 |] %37
w: pre- ti\- * *|um, Se|re- gnans *|dat in|prae\- * mi\- *|um.|A\-||men.|
w: ti- li\- * *|a: Da|ro- bur, *|fer au-|xi\- * li\- *|um.||||
w: ter- mi\- * *|no, No-|bis do\- *|net in|pa\- * tri\- *|a.||||
V:4
 D,4 | D,4 A,,4 | B,,4 E,4 | F,4 F,,4 | B,,4 G,,4 | B,,4 (F,2 E,2) | (D,2 C,2) (B,,2 A,,2) | %7
w: Ver-|bum su-|per- num|pro- di-|ens, Nec|Pa- tris *|lin\- * quens *|
w: In|mor- tem|a di-|sci- pu-|lo, Su-|is tra\- *|den\- * dus *|
w: Qui-|bus sub|bi- na|spe- ci-|e, Car-|nem de\- *|dit * et *|
 G,,4 C,4 | F,,4 D,4 | E,4 B,,4 | D,4 (C,2 B,,2) | (A,,2 B,,2) (C,2 D,=E,) | F,4 D,4 | G,,4 F,,4 | %14
w: dex- te-|ram, Ad|o- pus|su- um *|ex\- * i\- * *|ens, Ve-|nit ad|
w: ae- mu-|lis, Pri-|us in|vi- tae *|fer\- * cu\- * *|lo, Se|tra- di-|
w: san- gui-|nem, Ut|du- pli-|cis sub\- *|stan\- * ti\- * *|ae, To-|tum ci-|
 B,,4 (E,2 C,2) | (D,2 E,2 F,2) F,,2 | B,,6 || D,4 | D,4 A,,4 | B,,4 E,4 | F,4 F,,4 | B,,4 G,,4 | %22
w: vi- tae *|ve- * * spe-|ram.|Se|na- scens|de- dit|so- ci-|um, Con-|
w: dit di\- *|sci\- * * pu-|lis.|O|sa- lu-|ta- ris|Hos- ti-|a, Quae|
w: ba- ret *|ho\- * * mi-|nem.|U-|ni Tri-|no- que|Do- mi-|no, Sit|
 B,,4 (F,2 E,2) | (D,2 C,2) (B,,2 A,,2) | G,,4 C,4 | F,,4 D,4 | E,4 B,,4 | D,4 (C,2 B,,2) | %28
w: ve- scens *|in * e\- *|du- li-|um, Se|mo- ri-|ens in *|
w: cae- li *|pan\- * dis *|hos- ti-|um, Bel-|la pre-|munt hos\- *|
w: sem- pi\- *|ter\- * na *|glo- ri-|a, Qui|vi- tam|si- ne *|
 (A,,2 B,,2) (C,2 D,=E,) | F,4 D,4 | G,,4 F,,4 | B,,4 (E,2 C,2) | (D,2 E,2 F,2) F,,2 | B,,6 || %34
w: pre\- * ti\- * *|um, Se|re- gnans|dat in *|prae\- * * mi-|um.|
w: ti\- * li\- * *|a: Da|ro- bur,|fer au\- *|xi\- * * li-|um.|
w: ter\- * mi\- * *|no, No-|bis do-|net in *|pa\- * * tri-|a.|
 (E,2 F,2 | G,2 F,2 E,4 | B,,8) |] %37
w: A\- *||men.|
w: |||
w: |||

